src/components/Icon/icons/IconCalendar/calendar.svg

<svg width="16" height="16" viewBox="0 0 16 16" xmlns="http://www.w3.org/2000/svg">
    <g clip-path="url(#clip0)">
        <path d="M13.1042 2.37492H12.4792V1.33325H11.4375V2.37492H4.56254V1.33325H3.52087V2.37492H2.89587C2.03426 2.37492 1.33337 3.07581 1.33337 3.93742V13.1041C1.33337 13.9657 2.03426 14.6666 2.89587 14.6666H13.1042C13.9658 14.6666 14.6667 13.9657 14.6667 13.1041V3.93742C14.6667 3.07581 13.9658 2.37492 13.1042 2.37492ZM2.89587 3.41659H3.52087V4.45825H4.56254V3.41659H11.4375V4.45825H12.4792V3.41659H13.1042C13.3914 3.41659 13.625 3.65025 13.625 3.93742V5.18742H2.37504V3.93742C2.37504 3.65025 2.6087 3.41659 2.89587 3.41659ZM13.1042 13.6249H2.89587C2.6087 13.6249 2.37504 13.3913 2.37504 13.1041V6.22909H13.625V13.1041C13.625 13.3913 13.3914 13.6249 13.1042 13.6249ZM9.56254 12.5312H12.6875V9.40617H9.56254V12.5312ZM10.6042 10.4478H11.6459V11.4895H10.6042V10.4478Z" />
    </g>
    <defs>
        <clipPath id="clip0">
            <rect width="13.3333" height="13.3333" transform="translate(1.33337 1.33325)"/>
        </clipPath>
    </defs>
</svg>

<svg width="16" height="16" xmlns="http://www.w3.org/2000/svg"><g clip-path="url(#clip0)"><path d="M13.104 2.375h-.625V1.333h-1.041v1.042H4.563V1.333H3.52v1.042h-.625c-.862 0-1.563.7-1.563 1.562v9.167c0 .862.701 1.563 1.563 1.563h10.208c.862 0 1.563-.701 1.563-1.563V3.937c0-.861-.701-1.562-1.563-1.562zM2.896 3.417h.625v1.041h1.042V3.417h6.875v1.041h1.041V3.417h.625c.287 0 .521.233.521.52v1.25H2.375v-1.25c0-.287.234-.52.52-.52zm10.208 10.208H2.896a.521.521 0 0 1-.521-.52V6.228h11.25v6.875c0 .287-.234.52-.52.52zM9.563 12.53h3.124V9.406H9.563v3.125zm1.041-2.083h1.042v1.041h-1.042v-1.041z"/></g><defs><clipPath id="clip0"><path transform="translate(1.333 1.333)" d="M0 0h13.333v13.333H0z"/></clipPath></defs></svg>
